X: 243
T: Qiuxing ku Zhangfu
%%abc-version 2.0
%%abcx-abcm2ps-target-version 5.9.1 (29 Sep 2008)
%%abc-creator hum2abc beta
%%abcx-conversion-date 2013/10/02 07:52:29
%%abc-edited-by Helmut Schaffrath
%%humdrum-veritas 3642585531
%%humdrum-veritas-data 411391844
%%continueall 1
%%barnumbers 0
L: 1/16
M: 2/4
K: Bb
c'2 f'2 d'2 d' c' [I:setbarnb 1]| 
b2c'4d'2 | 
f'2 g' f' d' f' d' c' | 
b2> g2 f g f2 | 
g2 b2 c'2 c' d' | 
f'2c'4g2 | 
b2> g2 f g f d | 
c8 |]  



